src/assets/icons/link.svg

<svg width="100%" height="100%" viewBox="0 0 22 22" fill="none" xmlns="http://www.w3.org/2000/svg">
<g clip-path="url(#clip0)">
<path d="M9.1206 16.7682L6.52823 19.3606C5.45349 20.4353 3.71303 20.4353 2.63919 19.3608C1.56514 18.2867 1.56514 16.5461 2.63898 15.4723L7.82461 10.2867C8.89845 9.21277 10.6391 9.21277 11.7129 10.2867C12.0709 10.6446 12.6513 10.6446 13.0093 10.2867C13.3673 9.92868 13.3673 9.34825 13.0093 8.99028C11.2195 7.20045 8.31806 7.20045 6.52823 8.99028L1.34265 14.1759C-0.447183 15.9657 -0.447183 18.8671 1.34265 20.6569C3.13226 22.4477 6.03387 22.4477 7.82465 20.6569L10.417 18.0646C10.775 17.7066 10.775 17.1262 10.417 16.7682C10.059 16.4102 9.47857 16.4102 9.1206 16.7682Z" fill="#444444"/>
<path d="M20.6574 1.34236C18.8676 -0.447473 15.9652 -0.447473 14.1754 1.34236L11.0651 4.45262C10.7071 4.8106 10.7071 5.39102 11.0651 5.749C11.4231 6.10697 12.0035 6.10697 12.3615 5.749L15.4718 2.63873C16.5456 1.56485 18.2871 1.56485 19.361 2.63873C20.4349 3.71257 20.4349 5.4532 19.361 6.52704L13.6575 12.2306C12.5836 13.3045 10.843 13.3045 9.76918 12.2306C9.4112 11.8726 8.83078 11.8726 8.4728 12.2306C8.11483 12.5886 8.11483 13.169 8.4728 13.527C10.2626 15.3168 13.164 15.3168 14.9539 13.527L20.6574 7.82346C22.4472 6.03363 22.4472 3.13219 20.6574 1.34236Z" fill="#444444"/>
</g>
<defs>
<clipPath id="clip0">
<rect width="22" height="22" fill="white"/>
</clipPath>
</defs>
</svg>

<svg xmlns="http://www.w3.org/2000/svg" width="100%" height="100%" viewBox="0 0 22 22" fill="none"><g clip-path="url(#A)" fill="#444"><path d="M9.121 16.768L6.529 19.36a2.75 2.75 0 0 1-3.889-3.889l5.186-5.186a2.75 2.75 0 0 1 3.888 0c.358.358.938.358 1.296 0s.358-.938 0-1.296c-1.79-1.79-4.691-1.79-6.481 0l-5.186 5.186c-1.79 1.79-1.79 4.691 0 6.481s4.691 1.791 6.482 0l2.592-2.592c.358-.358.358-.938 0-1.296s-.938-.358-1.296 0zM20.657 1.342c-1.79-1.79-4.692-1.79-6.482 0l-3.11 3.11c-.358.358-.358.938 0 1.296s.938.358 1.296 0l3.11-3.11a2.75 2.75 0 0 1 3.889 0 2.75 2.75 0 0 1 0 3.888l-5.703 5.704a2.75 2.75 0 0 1-3.888 0c-.358-.358-.938-.358-1.296 0s-.358.938 0 1.296c1.79 1.79 4.691 1.79 6.481 0l5.703-5.704c1.79-1.79 1.79-4.691 0-6.481z"/></g><defs><clipPath id="A"><path fill="#fff" d="M0 0h22v22H0z"/></clipPath></defs></svg>
